X:879
T:Shake Hands Wi' Yer Uncle Mike
C:Joe Buchanan's Scottish Tome - Page 436.1
I:436 1
R:Two-step
Z:Carl Allison
L:1/8
M:6/8
K:C
G | C2> C2 C2> E2 | D2> C2 C2> G2 | A2> A2 F2> A2 | G4 ((3GAB) |
c2> c2 B2> c2 | A2> G2 E2> G2 | A2> D2 D2> E2 | D4- D2 G |
C2> C2 C2> E2 | D2> C2 C2> G2 | A2> A2 F2> A2 | G4 ((3GAB) |
c2> c2 B2> c2 | A2> G2 E2> C2 | D2> C2 C2> D2 | C6 |]
G | A2> A2 F2> A2 | c2> c2 c2> A2 | A2> G2 G2> E2 | E4 E |
G2> G2 G2> G2 | A2> c2 A2> G2 | E2> D2 D2> E2 | G6 G |
C2> C2 C2> E2 | D2> C2 C2> G2 | A2> A2 F2> A2 | G4 ((3GAB) |
c2> c2 B2> c2 | A2> G2 E2> C2 | D2> C2 C2> D2 | C6 |]

